X:1
T:De tant aymer
T:Jacotin
T:Source : 29 chansons à 4 parties---Paris---P.Attaignant---1530. Editor : André Vierendeels (20/12/17). Notes : Original clefs :C1, C3, C4, F4 Original note values have been halved Editorial accidentals above the staff   
T:De tant aymer
T:#
T:©
T:©
T:©
C:Jacotin
Z:©
%%score [ 1 [ 2 3 ] 4 ]
L:1/8
Q:1/4=120
M:2/2
K:C
V:1 treble nm="Soprano" snm="S"
V:2 treble-8 nm="Tenor 1" snm="T 1"
V:3 treble-8 nm="Tenor 2" snm="T 2"
V:4 bass nm="Bass" snm="B"
V:1
 D4 E2 E2 | F2 F2 G2 E2- | ED D4 C2 | D8 | z2 C2 D2 D2 | E2 G2 A2 B2 | c2 d2 c2 B2- | BA A4 G2 | %8
w: De tant ay-|mer mon cueur s'a-|* * bu- se-|roit|par quoy con-|vient que ce train|la ie chan- *||
 A2 z A G2 A2- | AG G4 F2 | G2 G2 A2 G2- | GFED E2 F2- | FE E4 D2 | E4 z2 E2 | E2 D2 E2 z2 | %15
w: ge,- et que du-|* * tout des|da- mes ie m'es-||* * tran- *|ge, car|mon ar- gent,|
 z2 D2 F2 G2 | D2 E2 E2 D2 | D2 C2 D2 A2 | G2 F3 E E2- | E2 D2 E2 z2 | z2 D2 F2 G2 | D2 E2 E2 D2 | %22
w: car mon ar-|gent et mon corps|s'u- se- roit, car|mon _ _ _|_ ar- gent|car mon ar-|gent et mon corps|
"^#" D2 C2 D4- | D8 |] %24
w: s'u- se- roit.|_|
V:2
 A4 c2 c2 | d2 d2 B2 c2 | A2 G2 A4 | z2 A2 A2 A2 | c2 G2 A2 B2 | c2 e2 d4 | c2 g2 e2 g2 | %7
w: De tant ay-|mer mon cueur s'a-|bu- se- roit|par quoy con-|vient ce train de|vi- e chan-|ge, que ce train|
w: |||||||
 f2 d2 e4 |"^#" c4 z2 f2- | f2 e2 d2 c2 | B2 c2 A2 B2 | G2 c6 | A8- | A8 | z2 A2 c2 d2 | %15
w: la ie chan-|ge, et|_ que du tout|des da- mes ie|m'es- tran-|ge|_|car mon ar-|
w: ||||' _|_|||
 A2 B2 A2 c2 | B2 c3 BAG | A4 z2 A2 | c2 d2 A4 | z2 A2 c2 d2 | A2 B2 A2 c2 | B2 c3 BAG | A4 A4- | %23
w: gent et mon corps|s'u- se- * * *|roit, car|mon ar- gent,|car mon ar-|gent et mon corps|s'u- * * * *|se- roit.|
w: ||||||||
 A8 |] %24
w: _|
w: |
V:3
 D4 G2 G2 | F2 D2 G2 G2 | F2 ED E2 E2 | D4 z2 D2 | E4 F4 | E4 z2 G2 | A2 B2 c2 d2 | c2 BA B4 | %8
w: De tant ay-|mer mon cueur s'a-|bu- * * * se-|roit, par|quoy con-|vient que|ce train de la|ie _ _ chan-|
 A4 z4 | z2 c2 B2 A2 | G2 E2 F2 D2 | EDEF G2 A2- | AG E2 F4 | E4 z2 A2 | G2 F2 E2 z D | %15
w: ge,|et que du|tout des da- mes|ie _ _ _ _ m'es-|* * * tran-|ge, car|mon ar- gent, car|
 F2 G2 D2 G2 | F2 G2 GFED | E2 E2 DEFD | E2 D2 z2 A2 | G2 F2 E2 z D | F2 G2 D2 G2 | F2 G2 GFED | %22
w: mon ar- gent et|mon corps s'u- * * *|* se- * * * *|* roit, car|mon ar- gent, car|mon ar- gent et|mon corps s'u- * * *|
 E2 E2 D4- | D8 |] %24
w: * se- roit|_|
V:4
 D,4 C,2 E,2 | D,2 F,2 E,2 C,2 | D,2 B,,2 A,,4 | z2 D,2 F,3 E,/D,/ | C,2 E,2 D,4 | C,4 z4 | %6
w: De tant ay-|mer mon cueur s'a-|bu- se- roit,|par quoy _ _|_ con- *|vient,|
 z2 G,2 A,2 G,2 | A,2 F,2 E,4 | A,,2 F,2 E,2 D,2 | C,4 z4 | z4 z2 G,,2 | C,6 A,,2 | D,2 C,2 D,4 | %13
w: que ce train|la ie chan-|de, et que du|tout|des|da- mes|ie m'es- tran-|
 A,,4 z2 A,,2 | C,2 D,2 A,,2 D,2 | D,2 G,,2 z2 C,2 | D,2 C,4 D,2 | A,,4 D,4 | z4 z2 A,,2 | %19
w: ge, car|mon ar- gent et|mon corps, et|mon corps s'u-|se- roit,|car|
 C,2 D,2 A,,2 D,2 | D,2 G,,2 z2 C,2 | D,2 C,4 D,2 | A,,4 D,4- | D,8 |] %24
w: mon ar- gent et|mon corps, et|mon corps s'u-|se- roit.|_|

